!!!!SEGMENT: pl-sa--61-a-ii-1--002_bencini-justus-ut-palma.krn
!!!id: 17xx:376
!!!COM: Bencini
!!!OTL: Justus ut palma
!!!PDT:
!!!SMS-siglum: PL-SA
!!!SMS-shelfmark: 61/A II 1
!!!NIFC-rismID: 1001041157
!!!URL-scan: http://bc.bdsandomierz.pl/dlibra/publication/1345/edition/1313/content
!!!ONB-nifc:
!!!SMS-variant: Canto PL-SA 61/A II 1:3, Violino Primo PL-SA 61/A II 1:5, Violino Secundo PL-SA 61/A II 1:7, Fundamento PL-SA 61/A II 1:11
!!!SMS-altvar: Canto Solo v Alto Solo PL-SA 61/A II 1:12, Violino Primo PL-SA 61/A II 1:14, Violino Secundo PL-SA 61/A II 1:16, Basso PL-SA 61/A II 1:18
**kern	**dynam	**kern	**dynam	**kern	**dynam	**kern	**text
*part4	*part4	*part3	*part3	*part2	*part2	*part1	*part1
*	*	*group1	*	*group1	*	*	*
*staff4	*	*staff3	*	*staff2	*	*staff1	*staff1
*I"Fundamento	*	*I"Violino Secundo	*	*I"Violino Primo	*	*I"Canto	*
*I'org.	*	*I'vl II	*	*I'vl I	*	*I'C	*
*clefF4	*	*clefG2	*	*clefG2	*	*clefC1	*
*k[f#c#]	*	*k[f#c#]	*	*k[f#c#]	*	*k[c#f#]	*
*M3/8	*	*M3/8	*	*M3/8	*	*M3/8	*
=1	=1	=1	=1	=1	=1	=1	=1
!	!	!	!	!	!	!LO:TX:a:t=27	!
!LO:TX:a:t=Allo&colon; no&colon; molto	!	!LO:TX:a:t=Allo&colon; non molto	!	!LO:TX:a:t=Allo&colon; non molto	!	!LO:TX:a:t=Allo&colon; non molto	!
!LO:TX:a:t=Aria 2	!	!	!	!	!	!LO:TX:a:t=P:problem:krzyżyki cc# f#	!
!	!	!	!	!	!	!LO:N:vis=00	!
4.AA/	.	4.a/	.	4.a/	.	1.r	.
=2	=2	=2	=2	=2	=2	=2	=2
8A\	.	8cc#\	.	8cc#\	.	.	.
!	!	!LO:N:vis=4.	!	!	!	!	!
4B\	.	4dd\	.	4dd\	.	.	.
=3	=3	=3	=3	=3	=3	=3	=3
8c#\L	.	8ee\L	.	8ee\L	.	.	.
8d\	.	8ff#\	.	8ff#\	.	.	.
8B\J	.	8gg#X\J	.	8gg#X\J	.	.	.
=4	=4	=4	=4	=4	=4	=4	=4
!	!	!LO:TX:t=P:problem:mixed beam	!	!LO:TX:t=P:problem:mixed beam	!	!	!
8A\L	.	8aa\L	.	8aa\L	.	.	.
8c#\	.	8a/J	.	8a/J	.	.	.
8A\J	.	16r	.	16r	.	.	.
.	.	16ee\	.	16ee\	.	.	.
=5	=5	=5	=5	=5	=5	=5	=5
*	*	*Xtuplet	*	*	*	*	*
!	!	!LO:TUP:a:problem:klamra łukowa	!	!LO:TUP:a:problem:klamra łukowa, kropka zamiast numeru	!	!	!
!	!	!	!	!	!	!LO:N:vis=00	!
4d\	.	24ff#\LL	.	24ff#\LL	.	1.r	.
.	.	24ee\	.	24ee\	.	.	.
.	.	24dd\JJ	.	24dd\JJ	.	.	.
.	.	8dd\L	.	8dd\L	.	.	.
8r	.	16r	.	16r	.	.	.
.	.	16b\Jk	.	16b\Jk	.	.	.
=6	=6	=6	=6	=6	=6	=6	=6
*	*	*tuplet	*	*	*	*	*
!	!	!LO:TUP:a:problem:klamra łukowa, kropka zamiast numeru	!	!LO:TUP:a:problem:klamra łukowa, kropka zamiast numeru	!	!	!
4c#\	.	24ee\LL	.	24ee\LL	.	.	.
.	.	24dd\	.	24dd\	.	.	.
.	.	24cc#\JJ	.	24cc#\JJ	.	.	.
.	.	8cc#\L	.	8cc#\L	.	.	.
8r	.	16r	.	16r	.	.	.
.	.	16a\Jk	.	16a\Jk	.	.	.
=7	=7	=7	=7	=7	=7	=7	=7
8d\L	.	4b\	.	4b\	.	.	.
8B\	.	.	.	.	.	.	.
8e\J	.	16cc#\LL	.	16cc#\LL	.	.	.
.	.	16dd\JJ	.	16dd\JJ	.	.	.
=8	=8	=8	=8	=8	=8	=8	=8
8A\L	.	4cc#\	.	4cc#\	.	.	.
8c#\	.	.	.	.	.	.	.
8B\J	.	8r	.	8r	.	.	.
=9	=9	=9	=9	=9	=9	=9	=9
!	!	!	!	!	!	!LO:N:vis=00	!
8A\L	.	16cc#\LL	.	16cc#\LL	.	1.r	.
.	.	16a\	.	16a\	.	.	.
8A\	.	16ee\	.	16ee\	.	.	.
.	.	16cc#\	.	16cc#\	.	.	.
8A\J	.	16b\	.	16b\	.	.	.
.	.	16a\JJ	.	16a\JJ	.	.	.
=10	=10	=10	=10	=10	=10	=10	=10
8E\L	.	16b/LL	.	16b\LL	.	.	.
.	.	16e/	.	16e\	.	.	.
8E\	.	16b/	.	16b\	.	.	.
.	.	16dd/JJ	.	16dd\	.	.	.
8E\J	.	16cc#\LL	.	16cc#\	.	.	.
.	.	16b\JJ	.	16b\JJ	.	.	.
=11	=11	=11	=11	=11	=11	=11	=11
!	!	!	!LO:DY:rj	!	!	!	!
8A\L	.	16cc#\LL	p	16cc#\LL	.	.	.
.	.	16a\	.	16a\	.	.	.
8A\	.	16ee\	.	16ee\	.	.	.
.	.	16cc#\	.	16cc#\	.	.	.
8A\J	.	16b\	.	16b\	.	.	.
.	.	16a\JJ	.	16a\JJ	.	.	.
=12	=12	=12	=12	=12	=12	=12	=12
8E\L	.	16b/LL	.	16b/LL	.	.	.
.	.	16e/	.	16e/	.	.	.
8E\	.	16b/	.	16b/	.	.	.
.	.	16dd/	.	16dd/	.	.	.
8E\J	.	16cc#/	.	16cc#/	.	.	.
.	.	16b/JJ	.	16b/JJ	.	.	.
=13	=13	=13	=13	=13	=13	=13	=13
!LO:TX:t=P:problem:mixed beam	!	!	!	!	!	!LO:N:vis=00	!
8A\L	.	8aa\L	f	8aa\L	.	1.r	.
!	!	!LO:TX:t=P:problem:mixed beam	!	!LO:TX:t=P:problem:mixed beam	!	!	!
8AA/	.	8a/	.	8a/	.	.	.
8AA/J	.	8a/J	.	8a/J	.	.	.
!	!	!	!	!LO:LB:g=original	!	!	!
=14	=14	=14	=14	=14	=14	=14	=14
4AA/	.	4a/	.	4a/	.	.	.
8r	.	8aa\	.	8aa\	.	.	.
=15	=15	=15	=15	=15	=15	=15	=15
!	!	!LO:TUP:a:problem:klamra łukowa, kropka zamiast numeru	!	!LO:TUP:a:problem:klamra łukowa, kropka zamiast numeru	!	!	!
8E\L	.	24gg#X\LL	.	24gg#X\LL	.	.	.
.	.	24ff#\	.	24ff#\	.	.	.
.	.	24ee\JJ	.	24ee\JJ	.	.	.
8G#X\	.	4ee\	.	4ee\	.	.	.
8E\J	.	.	.	.	.	.	.
!	!	!LO:LB:g=original	!	!	!	!	!
=16	=16	=16	=16	=16	=16	=16	=16
!LO:TX:t=P:problem:mixed beam	!	!LO:TX:t=P:problem:mixed beam	!LO:DY:rj	!LO:TX:t=P:problem:mixed beam	!LO:DY:rj	!	!
8A\L	.	8aa\L	p	8aa\L	p	.	.
8AA/	.	8a/	.	8a/	.	.	.
8AA/J	.	8a/J	.	8a/J	.	.	.
=17	=17	=17	=17	=17	=17	=17	=17
!	!	!	!	!	!	!LO:N:vis=00	!
4AA/	.	4a/	.	4a/	.	1.r	.
8r	.	8aa\	.	8aa\	.	.	.
=18	=18	=18	=18	=18	=18	=18	=18
*	*	*	*	*Xtuplet	*	*	*
!	!	!LO:TUP:a:problem:klamra łukowa, kropka zamiast numeru	!	!	!	!	!
8E\L	.	24gg#X\LL	.	24gg#X\LL	.	.	.
.	.	24ff#\	.	24ff#\	.	.	.
.	.	24ee\JJ	.	24ee\JJ	.	.	.
8G#X\	.	4ee\	.	4ee\	.	.	.
8E\J	.	.	.	.	.	.	.
!LO:LB:g=original	!	!	!	!	!	!	!
=19	=19	=19	=19	=19	=19	=19	=19
!	!	!	!LO:DY:t=for	!	!LO:DY:t=for	!	!
8AA/L	.	8cc#\L	f	8cc#\L	f	.	.
8AA/	.	16cc#\L	.	16cc#\L	.	.	.
.	.	16a\	.	16a\	.	.	.
8BB/J	.	16dd\	.	16dd\	.	.	.
.	.	16b\JJ	.	16b\JJ	.	.	.
=20	=20	=20	=20	=20	=20	=20	=20
8C#/L	.	8ee\L	.	8ee\L	.	.	.
8C#/	.	16ee\L	.	16ee\L	.	.	.
.	.	16cc#\	.	16cc#\	.	.	.
8D/J	.	16ff#\	.	16ff#\	.	.	.
.	.	16dd\JJ	.	16dd\JJ	.	.	.
=21	=21	=21	=21	=21	=21	=21	=21
!	!	!	!	!	!	!LO:N:vis=00	!
8C#/L	.	8aa\L	.	8aa\L	.	1.r	.
8C#/	.	16aa\L	.	16aa\L	.	.	.
.	.	16ee\	.	16ee\	.	.	.
8D/J	.	16ff#\	.	16ff#\	.	.	.
.	.	16dd\JJ	.	16dd\JJ	.	.	.
=22	=22	=22	=22	=22	=22	=22	=22
8C#/L	.	16ee\LL	.	16ee\LL	.	.	.
.	.	16cc#\JJ	.	16cc#\JJ	.	.	.
8BB/	.	16dd\LL	.	16dd\LL	.	.	.
.	.	16b\JJ	.	16b\JJ	.	.	.
8AA/J	.	16cc#\LL	.	16cc#\LL	.	.	.
.	.	16a\JJ	.	16a\JJ	.	.	.
=23	=23	=23	=23	=23	=23	=23	=23
8E\L	.	16e/LL	.	16e/LL	.	.	.
.	.	16a/JJ	.	16a/JJ	.	.	.
!LO:TX:t=P:problem:mixed beam	!	!	!	!	!	!	!
8EE/	.	4bT/	.	4bT/	.	.	.
8EE/J	.	.	.	.	.	.	.
=24	=24	=24	=24	=24	=24	=24	=24
!	!	!	!	!	!LO:DY:rj:t=p&colon;	!	!
8AA/L	.	8aa\L	.	8aa\L	p	.	.
8C#/	.	16aa\L	.	16aa\L	.	.	.
.	.	16ee\	.	16ee\	.	.	.
8D/J	.	16ff#\	.	16ff#\	.	.	.
.	.	16dd\JJ	.	16dd\JJ	.	.	.
=25	=25	=25	=25	=25	=25	=25	=25
!	!	!	!	!	!	!LO:N:vis=0	!
8C#/L	.	16ee\LL	.	16ee\LL	.	2.r	.
.	.	16cc#\	.	16cc#\JJ	.	.	.
8BB/	.	16dd\	.	16dd\LL	.	.	.
.	.	16b\	.	16b\JJ	.	.	.
8AA/J	.	16cc#\	.	16cc#\LL	.	.	.
.	.	16a\JJ	.	16a\JJ	.	.	.
=26	=26	=26	=26	=26	=26	=26	=26
!LO:TX:a:t=P:problem:mixed beam	!	!	!	!	!	!	!
8E\L	.	16e/LL	.	16e/LL	.	.	.
.	.	16a/JJ	.	16a/JJ	.	.	.
8EE/	.	4bT\	.	4bT\	.	.	.
8EE/J	.	.	.	.	.	.	.
=27	=27	=27	=27	=27	=27	=27	=27
4AA/	.	8a/L	f	8a/L	.	4.r	.
.	.	8A/J	.	8A/J	.	.	.
8r	.	8r	.	8r;	.	.	.
=28	=28	=28	=28	=28	=28	=28	=28
!	!	!	!LO:DY:t=p&colon;	!	!LO:DY:t=p&colon;	!LO:TX:a:t=d	!
4.r	.	4.a/	p	4.a/	p	4.a\	Ju-
!	!	!	!	!LO:LB:g=original	!	!	!
=29	=29	=29	=29	=29	=29	=29	=29
!	!LO:DY:t=P&colon;	!	!	!	!	!	!
8A\	p	8cc#\	.	8cc#\	.	8cc#\	.
4B\	.	4dd\	.	4dd\	.	4dd\	-stus
=30	=30	=30	=30	=30	=30	=30	=30
8c#\L	.	8ee\L	.	8ee\L	.	8ee\L	Ju-
8d\	.	8ff#\	.	8ff#\	.	8ff#\	-stuſ
8B\J	.	8gg#X\J	.	8gg#X\J	.	8gg#X\J	ut
=31	=31	=31	=31	=31	=31	=31	=31
!	!	!	!	!LO:TX:t=P:problem:mixed beam	!	!LO:TX:t=P:problem:mixed beam	!
8A\L	.	8aa\L	.	8aa\L	.	8aa\L	Pal-
!	!	!LO:TX:t=P:problem:mixed beam	!	!	!	!	!
8c#\	.	8a/J	.	8a/J	.	8a/J	-ma
8A\J	.	16r	.	16r	.	16r	.
.	.	16cc#\	.	16ee\	.	16ee\	flo-
!	!	!LO:LB:g=original	!	!	!	!	!
=32	=32	=32	=32	=32	=32	=32	=32
4d\	.	4dd\	.	4ff#\	.	16ff#\LL	-re-
.	.	.	.	.	.	16ee\J	-bit
.	.	.	.	.	.	8dd\J	.
8r	.	8r	.	8r	.	16r	.
*	*	*	*	*	*	*	*ij
.	.	.	.	.	.	16b\	flo-
=33	=33	=33	=33	=33	=33	=33	=33
4c#\	.	4cc#\	.	4ee\	.	16ee\LL	-re-
.	.	.	.	.	.	16dd\J	-bit
*	*	*	*	*	*	*	*Xij
.	.	.	.	.	.	8cc#\J	.
8r	.	8r	.	8r	.	16r	.
.	.	.	.	.	.	16a\	flo-
=34	=34	=34	=34	=34	=34	=34	=34
8d\L	.	4b\	.	4b\	.	4b\	-re-
8B\	.	.	.	.	.	.	.
8e\J	.	16cc#\LL	.	16cc#\LL	.	16cc#\LL	.
.	.	16dd\JJ	.	16dd\JJ	.	16dd\JJ	.
=35	=35	=35	=35	=35	=35	=35	=35
!	!	!	!LO:DY:rj:t=f&colon;	!	!LO:DY:rj	!	!
4A\	.	16cc#\LL	f	16cc#\LL	f	4cc#\	-bit
.	.	16aa\	.	16aa\	.	.	.
.	.	16gg#X\	.	16gg#X\	.	.	.
.	.	16aa\	.	16aa\	.	.	.
8r	.	16gg#\	.	16gg#\	.	8r	.
.	.	16aa\JJ	.	16aa\JJ	.	.	.
=36	=36	=36	=36	=36	=36	=36	=36
4A\	.	8a\L	p	8a\L	p	(8a\L	et
.	.	16b\L	.	16b\L	.	(16b\L	.
.	.	16cc#\	.	16cc#\	.	16cc#\JJ)	.
8r	.	16dd\	.	16dd\	.	16dd\LL	.
.	.	16ee\JJ	.	16ee\JJ	.	16ee\JJ)	.
=37	=37	=37	=37	=37	=37	=37	=37
8D\L	.	8ff#\	.	8ff#\	.	8ff#\	si-
8BB\	.	4gg#X\	.	4gg#X\	.	4gg#X\	-cut
8E\J	.	.	.	.	.	.	.
=38	=38	=38	=38	=38	=38	=38	=38
!	!	!LO:TX:t=P:problem:mixed beam	!	!LO:TX:t=P:problem:mixed beam	!	!LO:TX:t=P:problem:mixed beam	!
4AA/	.	8aa\L	.	8aa\L	.	8aa\L	Ce-
.	.	8a/J	.	8a/J	.	8a/J	-drus
8r	.	8ee\	f	8aa\	f	8r	.
!	!	!	!	!	!	!LO:LB:g=original	!
=39	=39	=39	=39	=39	=39	=39	=39
!	!	!	!LO:DY:t=p&colon;	!	!	!	!
4A\	.	8.cc#\L	p	8.ee\L	p	(8.ee\L	et
.	.	16dd\K	.	16ff#\K	.	16ff#\K	.
8r	.	8cc#\J	.	8ee\J	.	8ee\J)	.
!LO:LB:g=original	!	!	!	!	!	!	!
=40	=40	=40	=40	=40	=40	=40	=40
8B\L	.	8g#X/	.	8dd\L	.	8dd\	si-
8A\	.	4a/	.	8cc#\J	.	4cc#\	-cut
8D#X\J	.	.	.	8aa\	f	.	.
=41	=41	=41	=41	=41	=41	=41	=41
!LO:TX:t=P:problem:mixed beam	!	!	!	!	!	!LO:TX:a:t=|:problem	!
8E\L	.	8cc#\L	.	8cc#\L	p	8cc#\L	Ce-
!	!	!	!	!	!	!LO:TX:a:t=|:problem	!
8EE/J	.	8b\J	f	8b\J	.	8b\J	-drus
8r	.	8ee\	.	8ee\	f	8r	.
=42	=42	=42	=42	=42	=42	=42	=42
4E\	.	8b\L	p	8b\L	.	8b\L	Li-
.	.	16cc#\L	.	16cc#\L	.	16cc#\L	.
!	!	!LO:TX:a:t=P:problem:# above	!	!	!	!	!
.	.	16dd#X\	.	16dd#X\	.	16dd#X\JJ	.
8r	.	16ee\	.	16ee\	.	16ee\LL	.
.	.	16ff#\JJ	.	16ff#\JJ	.	16ff#\JJ	.
=43	=43	=43	=43	=43	=43	=43	=43
!LO:TX:t=P:problem:mixed beam	!	!	!	!	!	!	!
8E\L	.	8ee\	.	8gg#X\	.	8gg#X\	.
.	.	.	.	8qqgg#/	.	.	.
8B\	.	4dd#X\	.	4ff#\	.	4ff#\	.
8BB/J	.	.	.	.	.	.	.
=44	=44	=44	=44	=44	=44	=44	=44
!	!	!	!	!LO:SIC:v:s=16gg#	!	!	!
4E\	.	16ee\LL	.	16gg\LL	.	16gg#X\LL	.
.	.	16dd#X\J	.	16ff#\J	.	16ff#'\J	-ba-
.	.	8ee\J	.	8ee\J	.	8ee'\J	-ni
8r	.	8gg#X\	f	8bb\	f	8r	.
!	!	!	!	!LO:LB:g=original	!	!	!
=45	=45	=45	=45	=45	=45	=45	=45
8G#X\L	.	8b\L	p	8b\L	p	(8b\L	mul-
!	!	!	!	!	!	!LO:TX:a:t=|:problem	!
8G#\	.	8ee\	.	8ee\	.	8ee\)	-ti-
!	!	!	!	!	!	!LO:TX:a:t=|:problem	!
8G#\J	.	8b\J	.	8b\J	.	8b\J	-pli-
=46	=46	=46	=46	=46	=46	=46	=46
*	*	*	*	*tuplet	*	*Xtuplet	*
!	!	!	!	!LO:TUP:a:problem:klamra łukowa, kropka zamiast numeru	!	!LO:TUP:a:problem:klamra łukowa	!
8A\L	.	8e/	.	24cc#\LL	.	24cc#\LL	-ca-
.	.	.	.	24b\	.	24b\	.
.	.	.	.	24a\JJ	.	24a\JJ	.
*	*	*Xtuplet	*	*	*	*	*
!	!	!LO:TUP:a:problem:klamra łukowa	!	!	!	!	!
8A\	.	24cc#\LL	.	4a/	.	4a\	.
.	.	24b\	.	.	.	.	.
.	.	24a\JJ	.	.	.	.	.
8A\J	.	8a/	.	.	.	.	.
!	!	!LO:LB:g=original	!	!	!	!	!
=47	=47	=47	=47	=47	=47	=47	=47
!	!	!	!	!LO:TUP:a:problem:klamra łukowa, kropka zamiast numeru w całym takcie	!	!	!
8A\L	.	8a/	.	24a\LL	.	8a\L	.
.	.	.	.	24b\	.	.	.
.	.	.	.	24cc#\JJ	.	.	.
!	!	!LO:TUP:a:problem:klamra łukowa	!	!	!	!	!
8A\	.	24a\LL	.	24cc#\LL	.	8cc#\	.
.	.	24b\	.	24dd\	.	.	.
.	.	24cc#\JJ	.	24ee\JJ	.	.	.
8A\J	.	8cc#\	.	8ee\	.	8ee\J	.
=48	=48	=48	=48	=48	=48	=48	=48
!	!	!	!	!LO:TUP:a:problem:klamra łukowa, kropka zamiast numeru	!	!LO:TUP:a:problem:klamra łukowa	!
8B\L	.	8f#/	.	24dd#X\LL	.	24dd#X\LL	.
.	.	.	.	24cc#\	.	24cc#\	.
.	.	.	.	24b\JJ	.	24b\JJ	.
!	!	!LO:TUP:a:problem:klamra łukowa	!	!	!	!	!
8B\	.	24dd#X\LL	.	4b\	.	4b\	.
.	.	24cc#\	.	.	.	.	.
.	.	24b\JJ	.	.	.	.	.
8B\J	.	8b\	.	.	.	.	.
=49	=49	=49	=49	=49	=49	=49	=49
*	*	*	*	*Xtuplet	*	*	*
!	!	!	!	!LO:TUP:a:problem:klamra łukowa	!	!	!
8B\L	.	8b\	.	24b\LL	.	8b\L	.
.	.	.	.	24cc#\	.	.	.
.	.	.	.	24dd#X\JJ	.	.	.
*	*	*	*	*tuplet	*	*	*
!	!	!LO:TUP:a:problem:klamra łukowa	!	!LO:TUP:a:problem:klamra łukowa, kropka zamiast numeru	!	!	!
8B\	.	24b\LL	.	24dd#\LL	.	8dd#X\	.
.	.	24cc#\	.	24ee\	.	.	.
.	.	24dd#X\JJ	.	24ff#\JJ	.	.	.
8B\J	.	8dd#\	.	8ff#\	.	8ff#\J	.
=50	=50	=50	=50	=50	=50	=50	=50
*	*	*	*	*Xtuplet	*	*tuplet	*
!	!	!	!	!	!	!LO:TUP:a:problem:klamra łukowa, kropka zamiast numeru	!
8c#\L	.	8g#X/	.	24ee\LL	.	24ee\LL	.
.	.	.	.	24dd#X\	.	24dd#X\	.
.	.	.	.	24cc#\JJ	.	24cc#\JJ	.
*	*	*tuplet	*	*	*	*	*
!	!	!LO:TUP:a:problem:klamra łukowa, kropka zamiast numeru	!	!	!	!	!
8c#\	.	24ee\LL	.	4cc#\	.	4cc#\	.
.	.	24dd#X\	.	.	.	.	.
.	.	24cc#\JJ	.	.	.	.	.
8c#\J	.	8cc#\	.	.	.	.	.
=51	=51	=51	=51	=51	=51	=51	=51
!	!	!	!	!LO:TUP:a:problem:klamra łukowa	!	!	!
8c#\L	.	8cc#\	.	24cc#\LL	.	8cc#\L	.
.	.	.	.	24dd#X\	.	.	.
.	.	.	.	24ee\JJ	.	.	.
*	*	*Xtuplet	*	*	*	*	*
!	!	!	!	!LO:TUP:a:problem:klamra łukowa	!	!	!
8c#\	.	24cc#\LL	.	24ee\LL	.	8ee\	.
.	.	24dd#X\	.	24ff#\	.	.	.
.	.	24ee\JJ	.	24gg#X\JJ	.	.	.
8c#\J	.	8ee\	.	8gg#\	.	8gg#X\J	.
=52	=52	=52	=52	=52	=52	=52	=52
*	*	*	*	*	*	*Xtuplet	*
!	!	!	!	!LO:TUP:a:problem:klamra łukowa	!	!LO:TUP:a:problem:klamra łukowa	!
8d#X\L	.	8a/	.	24ff#\LL	.	24ff#\LL	.
.	.	.	.	24ee\	.	24ee\	.
!	!	!	!	!LO:SIC:v:s=16dd#	!	!	!
.	.	.	.	24dd\JJ	.	24dd#X\JJ	-bi-
!	!	!	!	!LO:SIC:v:s=4dd#	!	!	!
8d#\	.	24ff#\LL	.	4dd\	.	4dd#\	-tur
.	.	24ee\	.	.	.	.	.
.	.	24dd#X\JJ	.	.	.	.	.
8d#\J	.	8dd#\	.	.	.	.	.
!	!	!	!	!	!	!LO:LB:g=original	!
=53	=53	=53	=53	=53	=53	=53	=53
!LO:SIC:v:s=8d#	!	!	!	!	!	!	!
8d\L	.	8b\	.	8b\	.	8b\L	et
!LO:SIC:v:s=8d#	!	!LO:TUP:a:problem:klamra łukowa	!	!LO:TUP:a:problem:klamra łukowa	!	!	!
8d\	.	24ff#\LL	.	24ff#\LL	.	8ff#\	si-
.	.	24ee\	.	24ee\	.	.	.
.	.	24dd#X\JJ	.	24dd#X\JJ	.	.	.
*	*	*tuplet	*	*	*	*	*
!LO:SIC:v:s=8d#	!	!LO:TUP:a:problem:klamra łukowa, kropka zamiast numeru	!	!LO:TUP:a:problem:klamra łukowa	!	!	!
8d\J	.	24cc#\LL	.	24dd#\LL	.	8a\J	-cut
.	.	24b\	.	24cc#\	.	.	.
.	.	24a\JJ	.	24b\JJ	.	.	.
=54	=54	=54	=54	=54	=54	=54	=54
!LO:TX:t=P:problem:mixed beam	!	!LO:TX:t=P:problem:mixed beam	!	!LO:TX:t=P:problem:mixed beam	!	!LO:TX:t=P:problem:mixed beam	!
8e\L	.	8ee\L	.	8ee\L	.	(>8ee\L	Ce-
8E/	.	8e/	.	8e/	.	8e/	.
8E/J	.	8e/J	.	8e/J	.	8e/J)	-druſ
=55	=55	=55	=55	=55	=55	=55	=55
4E\	.	4e/	.	4e/	.	(4e/	Li-
8r	.	8ee\	.	8ee\	.	8ee\)	.
=56	=56	=56	=56	=56	=56	=56	=56
8B\L	.	16dd#X\LL	.	16dd#X\LL	.	16dd#X\LL	.
.	.	16cc#\JJ	.	16cc#\JJ	.	16cc#\JJ	-ba-
8d#X\	.	4b\	.	4b\	.	4b\	-ni
8B\J	.	.	.	.	.	.	.
=57	=57	=57	=57	=57	=57	=57	=57
!	!	!LO:TX:t=P:problem:mixed beam	!	!LO:TX:t=P:problem:mixed beam	!	!LO:TX:t=P:problem:mixed beam	!
!	!	!	!	!	!	!LO:TX:a:t=|:problem	!
8e\L	.	8ee\L	.	8ee\L	.	8ee\L	mul-
!	!	!	!	!	!	!LO:TX:a:t=|:problem	!
8E\	.	8e/	.	8e/	.	8e/	-ti-
!	!	!	!	!	!	!LO:TX:a:t=|:problem	!
8E\J	.	8e/J	.	8e/J	.	8e/J	-pli-
!	!	!	!	!LO:LB:g=original	!	!	!
=58	=58	=58	=58	=58	=58	=58	=58
4E\	.	4e/	.	4e/	.	(4e/	-ca-
8e\	.	8ee\	.	8ee\	.	8ee\)	.
!LO:LB:g=original	!	!LO:LB:g=original	!	!	!	!	!
=59	=59	=59	=59	=59	=59	=59	=59
16d#X\LL	.	16dd#X\LL	.	16dd#X\LL	.	16dd#X\LL	.
16e\	.	16ee\	.	16ee\	.	16ee\	.
16d#\	.	16dd#\	.	16dd#\	.	16dd#\	.
16c#\	.	16cc#\	.	16cc#\	.	16cc#\	.
16B\	.	16b\	.	16b\	.	16b\	.
16A\JJ	.	16a\JJ	.	16a\JJ	.	16a\JJ	.
=60	=60	=60	=60	=60	=60	=60	=60
!	!	!LO:TX:t=P:problem:mixed beam	!	!LO:N:vis=4	!	!	!
4G#X\	.	8g#X/L	.	4.g#X/	.	8g#X\L	.
.	.	8ee\	.	.	.	8ee\	.
8A\	.	8aa\J	.	.	.	8a\J	.
=61	=61	=61	=61	=61	=61	=61	=61
*	*	*	*	*tuplet	*	*	*
!LO:TX:t=P:problem:mixed beam	!	!LO:TUP:a:problem:klamra łukowa, kropka zamiast numeru	!	!LO:TUP:a:problem:klamra łukowa, kropka zamiast numeru	!	!LO:TUP:b:problem:klamra łukowa	!
8B\L	.	24gg#X\LL	.	24gg#X\LL	.	24g#X/LL	.
.	.	24ff#\	.	24ff#\	.	24f#/	.
.	.	24ee\JJ	.	24ee#X\JJ	.	24e/JJ	.
8BB/	.	4ff#T\	.	4ff#T\	.	4f#T/	-bi-
8BB/J	.	.	.	.	.	.	.
=62	=62	=62	=62	=62	=62	=62	=62
!	!LO:DY:t=f&colon;	!	!LO:DY:t=for	!LO:SIC:v:s=16gg#	!LO:DY:t=for	!	!
8E\L	f	16gg#X\LL	f	16gg\LL	f	4e/	-tur
.	.	16ee\	.	16ee\	.	.	.
8E\	.	16bb\	.	16bb\	.	.	.
!	!	!	!	!LO:SIC:v:s=16gg#	!	!	!
.	.	16gg#\	.	16gg\	.	.	.
8E\J	.	16ff#\	.	16ff#\	.	8r	.
.	.	16ee\JJ	.	16ee\JJ	.	.	.
=63	=63	=63	=63	=63	=63	=63	=63
!	!	!	!	!	!	!LO:TX:a:t=8	!
!	!	!	!	!	!	!LO:N:vis=00	!
8BB/L	.	16ff#\LL	.	16ff#\LL	.	1.r	.
.	.	16b\	.	16b\	.	.	.
8BB/	.	16ff#\	.	16ff#\	.	.	.
.	.	16aa\	.	16aa\	.	.	.
!	!	!LO:SIC:v:s=16gg#	!	!	!	!	!
8BB/J	.	16gg\	.	16gg#X\	.	.	.
.	.	16ff#\JJ	.	16ff#\JJ	.	.	.
=64	=64	=64	=64	=64	=64	=64	=64
8E\L	.	16gg#X\LL	p	16gg#X\LL	.	.	.
.	.	16ee\	.	16ee\	.	.	.
8E\	.	16bb\	.	16bb\	.	.	.
.	.	16gg#\	.	16gg#\	.	.	.
8E\J	.	16ff#\	.	16ff#\	.	.	.
.	.	16ee\JJ	.	16ee\JJ	.	.	.
=65	=65	=65	=65	=65	=65	=65	=65
8BB/L	.	16ff#\LL	.	16ff#\LL	.	.	.
.	.	16b\	.	16b\	.	.	.
8BB/	.	16ff#\	.	16ff#\	.	.	.
.	.	16aa\	.	16aa\	.	.	.
8BB/J	.	16gg#X\	.	16gg#X\	.	.	.
.	.	16ff#\JJ	.	16ff#\JJ	.	.	.
=66	=66	=66	=66	=66	=66	=66	=66
!	!	!	!LO:DY:t=for	!	!	!	!
8E\L	.	8gg#X\L	f	8gg#X\L	.	.	.
8E\	.	16gg#\L	.	16gg#\L	.	.	.
.	.	16ee\	.	16ee\	.	.	.
8F#\J	.	16aa\	.	16aa\	.	.	.
.	.	16ff#\JJ	.	16ff#\JJ	.	.	.
=67	=67	=67	=67	=67	=67	=67	=67
!LO:SIC:v:s=4G#	!	!	!	!	!	!LO:N:vis=00	!
8G\L	.	8bb\L	.	8bb\L	.	1.r	.
!LO:SIC:v:s=4G#	!	!	!	!	!	!	!
8G\	.	16bb\L	.	16bb\L	.	.	.
!	!	!LO:SIC:v:s=16gg#	!	!	!	!	!
.	.	16gg\	.	16gg#X\	.	.	.
8F#\J	.	16aa\	.	16aa\	.	.	.
.	.	16ff#\JJ	.	16ff#\JJ	.	.	.
=68	=68	=68	=68	=68	=68	=68	=68
8E\L	.	8gg#X\L	.	8gg#X\L	.	.	.
8E\	.	16gg#\L	.	16gg#\L	.	.	.
.	.	16ee\	.	16ee\	.	.	.
8F#\J	.	16aa\	.	16aa\	.	.	.
.	.	16ff#\JJ	.	16ff#\JJ	.	.	.
=69	=69	=69	=69	=69	=69	=69	=69
8G#X\L	.	16bb\LL	.	16bb\LL	.	.	.
.	.	16ee\JJ	.	16ee\JJ	.	.	.
8A\	.	4ff#t\	.	4ff#t\	.	.	.
8B\J	.	.	.	.	.	.	.
=70	=70	=70	=70	=70	=70	=70	=70
!	!	!LO:TX:t=P:problem:mixed beam	!	!LO:TX:t=P:problem:mixed beam	!	!	!
4E\	.	8ee\L	.	8ee\L	.	.	.
.	.	8e/J	.	8e/J	.	.	.
8r	.	8r	.	8r	.	.	.
=71	=71	=71	=71	=71	=71	=71	=71
!	!	!	!	!	!LO:DY:rj	!	!
4.r	.	4.ee\	p	4.ee\	p	4.ee\	Et
!	!	!	!	!LO:LB:g=original	!	!	!
=72	=72	=72	=72	=72	=72	=72	=72
4.e\	p	8b/	.	8b/	.	8b\	flo-
.	.	.	.	8qqa/	.	.	.
.	.	4g#X/	.	4g#X/	.	4g#X\	.
!	!	!LO:LB:g=original	!	!	!	!	!
=73	=73	=73	=73	=73	=73	=73	=73
8E\L	.	8e/	.	8e/	.	8e/	.
8D#X\	.	4f#/	.	4f#t/	.	4f#t/	.
8BB\J	.	.	.	.	.	.	.
=74	=74	=74	=74	=74	=74	=74	=74
8E\L	.	16g#X/LL	.	16g#X/LL	.	16g#X/LL	-re-
.	.	16f#/J	.	16f#/J	.	16f#/J	.
8G#X\	.	8e/J	.	8e/J	.	8e/J	-bit
8E\J	.	16r	.	16r	.	16r	.
.	.	16e/	.	16e/	.	16e/	flo-
!	!	!	!	!	!	!LO:LB:g=original	!
=75	=75	=75	=75	=75	=75	=75	=75
4.F#\	.	4.a/	.	8dd\	.	8dd\	.
.	.	.	.	8.ddT\L	.	8.ddT\L	.
.	.	.	.	32cc#\LL	.	32cc#\LL	.
.	.	.	.	32dd\JJJ	.	32dd\JJJ	.
=76	=76	=76	=76	=76	=76	=76	=76
4.G#X\	.	4.b/	.	8e/	.	8e/	.
.	.	.	.	4dd\	.	4dd\	.
=77	=77	=77	=77	=77	=77	=77	=77
4A\	.	4e/	.	8dd\L	.	8dd\L	-re-
!	!	!	!	!	!	!LO:TX:a:t=|:problem	!
.	.	.	.	8cc#\J	.	8cc#\J	-bit
!	!	!	!LO:DY:t=for&colon;	!	!LO:DY:t=for	!	!
8r	.	8ee/	f	8aa\	f	8r	.
=78	=78	=78	=78	=78	=78	=78	=78
!	!	!	!	!	!LO:DY:t=pia	!	!
4.r	.	8a\L	.	8a\L	p	8a\	in
.	.	16b\L	.	16b\L	.	16b\LL	ae-
.	.	16cc#\	.	16cc#\	.	16cc#\	.
.	.	16dd\	.	16dd\	.	16dd\	.
.	.	16ee\JJ	.	16ee\JJ	.	16ee\JJ	.
=79	=79	=79	=79	=79	=79	=79	=79
8AA/L	.	8dd\	.	8ff#\	.	8ff#\	-ter-
8AA/	.	4dd\	.	4ff#\	.	4ff#\	-num
8AA/J	.	.	.	.	.	.	.
=80	=80	=80	=80	=80	=80	=80	=80
4AA/	.	8dd\L	.	16aa\LL	.	16aa\LL	flo-
.	.	.	.	16ff#\JJ	.	16ff#\JJ	.
.	.	8b\	.	8dd#X\L	.	8dd#X\L	.
8r	.	8cc#\J	.	8ee\J	.	8ee\J	.
!LO:LB:g=original	!	!	!	!	!	!	!
=81	=81	=81	=81	=81	=81	=81	=81
4E\	.	8.b\L	.	8.ddn\L	.	(8.ddn\L	-re-
.	.	16cc#\K	.	16ee\K	.	16ee\K)	-bit
!	!	!	!	!	!	!LO:TX:a:t=|:problem	!
8r	.	8b\J	.	8dd\J	.	8dd\J	.
=82	=82	=82	=82	=82	=82	=82	=82
8E\L	.	8gg#X\	.	8bb\	.	8bb\	in
8G#X\	.	4b/	.	4dd\	.	4dd\	ae-
8E\J	.	.	.	.	.	.	.
=83	=83	=83	=83	=83	=83	=83	=83
4AA/	.	8b\L	.	8dd\L	.	8dd\L	-ter-
.	.	8a\	.	8cc#\J	.	8cc#\J	-num
!	!	!	!	!	!LO:DY:t=fo&colon;	!	!
8r	.	8ee\J	.	8aa\	f	8r	.
=84	=84	=84	=84	=84	=84	=84	=84
!LO:N:vis=0	!	!LO:N:vis=0	!	!	!LO:DY:t=p&colon;	!	!
2.r	.	2.r	.	8a/L	p	(8a\	an-
.	.	.	.	8a/	.	8a\)	.
!	!	!	!	!	!	!LO:TX:a:t=|:problem	!
.	.	.	.	8a/J	.	8a\	-te
=85	=85	=85	=85	=85	=85	=85	=85
!	!	!	!	!LO:TX:a:t=P:problem:mixed beam	!	!	!
.	.	.	.	16a/LL	.	16a\LL	Do-
.	.	.	.	16ffn\	.	16ffn\	.
.	.	.	.	16ee\	.	16ee\	.
.	.	.	.	16dd\	.	16dd\	.
.	.	.	.	16cc#\	.	16ccn\	.
.	.	.	.	16b\JJ	.	16b\JJ	.
!	!	!	!	!LO:LB:g=original	!	!	!
=86	=86	=86	=86	=86	=86	=86	=86
8Fn\L	.	8a/L	.	16a/LL	.	16a\LL	-mi-
!	!	!	!	!	!	!LO:TX:a:t=|:problem	!
.	.	.	.	16g#X/J	.	16g#X\J	-num
!	!	!	!	!	!	!LO:TX:a:t=|:problem	!
8F\	.	8a/	.	8a/J	.	8a\J	.
8F\J	.	8a/J	.	8r	.	8r	.
!	!	!	!	!	!	!LO:LB:g=original	!
=87	=87	=87	=87	=87	=87	=87	=87
!	!	!	!	!	!	!LO:TX:a:t=1	!
16Fn\LL	.	16a/LL	.	4.r	.	4.r	.
16B-X\	.	16b-X/	.	.	.	.	.
16A\	.	16a/	.	.	.	.	.
16G\	.	16g/	.	.	.	.	.
16F\	.	16fn/	.	.	.	.	.
16E\JJ	.	16e/JJ	.	.	.	.	.
=88	=88	=88	=88	=88	=88	=88	=88
4D\	.	4fn/	.	8b\	.	8b\L	flo-
!	!	!	!	!LO:TUP:a:problem:klamra łukowa, kropka zamiast numeru w całym takcie	!	!	!
.	.	.	.	24ffn\LL	.	(8ffn\	-re-
.	.	.	.	24ee\	.	.	.
.	.	.	.	24dd\JJ	.	.	.
8D#X\	.	8f#X/	.	24ccn\LL	.	8a\J)	.
.	.	.	.	24b\	.	.	.
.	.	.	.	24a\JJ	.	.	.
=89	=89	=89	=89	=89	=89	=89	=89
8E\L	.	8B/L	.	8g#X/L	.	8g#X\	-bit
!	!	!	!	!LO:TX:t=P:problem:mixed beam	!	!	!
8E\	.	8g/	.	8gg#y\	.	16r	.
.	.	.	.	.	.	16a\LL	flo-
8E\J	.	8g/J	.	8gg#\J	.	16b\	.
.	.	.	.	.	.	16cc#\JJ	.
!	!	!LO:LB:g=original	!	!	!	!	!
=90	=90	=90	=90	=90	=90	=90	=90
8E\L	.	8g#X/L	.	8dd\L	.	16dd\LL	-re-
.	.	.	.	.	.	16ee\	.
8E\	.	8g#/	.	8dd\	.	16dd\	.
.	.	.	.	.	.	16cc#\	.
8E\J	.	8g#/J	.	8dd\J	.	16dd\	.
!	!	!	!	!	!	!LO:TX:a:t=3	!
.	.	.	.	.	.	16b\JJ	.
=91	=91	=91	=91	=91	=91	=91	=91
8E\L	.	8a\L	.	8cc#X\L	.	8a\	-bit
8E\	.	8cc#\	.	8aa\	.	16r	.
*	*	*	*	*	*	*	*ij
.	.	.	.	.	.	16b\LL	flo-
8E\J	.	8cc#\J	.	8aa\J	.	16cc#\	.
.	.	.	.	.	.	16dd\JJ	.
=92	=92	=92	=92	=92	=92	=92	=92
8E\L	.	8a/L	.	8cc#\L	.	16ee\LL	-re-
.	.	.	.	.	.	16ff#\	.
8E\	.	8a/	.	8cc#\	.	16ee\	.
.	.	.	.	.	.	16dd\	.
8E\J	.	8a/J	.	8cc#\J	.	16ee\	.
.	.	.	.	.	.	16cc#\JJ	.
=93	=93	=93	=93	=93	=93	=93	=93
!	!	!LO:TX:t=P:problem:mixed beam	!	!	!	!	!
8E\L	.	8g#X/L	.	8b/L	.	8b\	-bit
*	*	*	*	*	*	*	*Xij
!	!	!	!	!LO:TX:t=P:problem:mixed beam	!	!	!
8E\	.	8gg#X\	.	8bb\	.	16r	.
.	.	.	.	.	.	16cc#\LL	flo-
8E\J	.	8gg#\J	.	8bb\J	.	16dd\	.
.	.	.	.	.	.	16ee\JJ	.
=94	=94	=94	=94	=94	=94	=94	=94
8E\L	.	8g#X/L	.	8dd\L	.	16ff#\LL	-re-
.	.	.	.	.	.	16ee\	.
8E\	.	8b/	.	8dd\	.	16ff#\	.
.	.	.	.	.	.	16dd\	.
8E\J	.	8g#/J	.	8dd\J	.	16cc#\	.
.	.	.	.	.	.	16b\JJ	.
=95	=95	=95	=95	=95	=95	=95	=95
8AA/L	.	8cc#\L	.	8cc#\L	.	8cc#\L	.
8AA/	.	16cc#\L	.	16cc#\L	.	16cc#\L	.
.	.	16a\	.	16a\	.	16a\	.
8BB/J	.	16dd\	.	16dd\	.	16dd\	.
.	.	16b\JJ	.	16b\JJ	.	16b\JJ	.
=96	=96	=96	=96	=96	=96	=96	=96
8C#/L	.	8ee\L	.	8ee\L	.	8ee\L	.
8C#/	.	16ee\L	.	16ee\L	.	16ee\L	.
.	.	16cc#\	.	16cc#\	.	16cc#\	.
8D/J	.	16ff#\	.	16ff#\	.	16ff#\	.
.	.	16dd\JJ	.	16dd\JJ	.	16dd\JJ	.
=97	=97	=97	=97	=97	=97	=97	=97
8C#/L	.	8aa\L	.	8aa\L	.	8aa\L	.
8C#/	.	16aa\L	.	16aa\L	.	16aa\L	.
.	.	16ee\	.	16ee\	.	16ee\	.
8D/J	.	16ff#\	.	16ff#\	.	16ff#\	.
.	.	16dd\JJ	.	16dd\JJ	.	16dd\JJ	.
=98	=98	=98	=98	=98	=98	=98	=98
8C#/L	.	16ee\LL	.	16ee\LL	.	16ee\LL	.
.	.	16cc#\	.	16cc#\JJ	.	16cc#\	.
8BB/	.	16dd\	.	16dd\LL	.	16dd\	.
.	.	16b\	.	16b\JJ	.	16b\	.
8AA/J	.	16cc#\	.	16cc#\LL	.	16cc#\	.
.	.	16a\JJ	.	16a\JJ	.	16a\JJ	.
!	!	!	!	!	!	!LO:LB:g=original	!
=99	=99	=99	=99	=99	=99	=99	=99
8E\L	.	16e/LL	.	16e/LL	.	16e/LL	.
.	.	16a/JJ	.	16a/JJ	.	16a/JJ	.
!LO:TX:t=P:problem:mixed beam	!	!	!	!	!	!	!
.	.	.	.	.	.	8qqa/	.
8EE/	.	4bT\	.	4bT/	.	4bT\	.
8EE/J	.	.	.	.	.	.	.
=100	=100	=100	=100	=100	=100	=100	=100
4AA/	.	4a/	.	4a/	.	4a\	-bit
8r	.	8r	.	8r	.	8r	.
!	!	!	!	!LO:LB:g=original	!	!	!
=101	=101	=101	=101	=101	=101	=101	=101
4E\	.	4b\	.	4gg#X\	.	8dd\L	flo-
.	.	.	.	.	.	8dd\	-re-
8r	.	8r	.	8r	.	8dd\J	-bit
!LO:LB:g=original	!	!	!	!	!	!	!
=102	=102	=102	=102	=102	=102	=102	=102
8E\L	.	8g#X/L	.	8dd\	.	8dd\	in
8E\	.	8g#/	.	4bb\	.	4bb\	ae-
8E\J	.	8g#/J	.	.	.	.	.
=103	=103	=103	=103	=103	=103	=103	=103
!	!	!LO:TX:t=P:problem:mixed beam	!	!	!	!	!
!	!	!LO:SIC:v:s=8g#	!	!	!	!	!
8E\L	.	8g/L	.	8dd\L	.	16dd\LL	-ter-
.	.	.	.	.	.	16cc#\J	.
8E\	.	8b/	.	8gg#X\	.	8dd\J	-num
!	!	!LO:SIC:v:s=8gg#	!	!	!	!	!
8E\J	.	8gg\J	.	8bb\J	.	8r	.
=104	=104	=104	=104	=104	=104	=104	=104
8E\L	.	8b/L	.	8dd\L	.	(8dd\L	in-
8E\	.	8a/	.	8cc#\	.	8cc#\)	.
8E\J	.	8g#X/J	.	8b\J	.	8b\J	-ae-
=105	=105	=105	=105	=105	=105	=105	=105
8A\L	.	8aa\L	.	8aa\L	.	(8aa\L	-ter-
!LO:TX:t=P:problem:mixed beam	!	!LO:TX:t=P:problem:mixed beam	!	!LO:TX:t=P:problem:mixed beam	!	!	!
8AA/	.	8a/	.	8a/	.	8a\)	.
8AA/J	.	8a/J	.	8a/J	.	8a\J	-num
!	!	!LO:LB:g=original	!	!	!	!	!
=106	=106	=106	=106	=106	=106	=106	=106
4AA/	.	4a/	.	4a/	.	4a\	an-
8A\	.	8aa\	.	8aa\	.	8aa\	-te
=107	=107	=107	=107	=107	=107	=107	=107
!	!	!	!	!LO:TUP:a:problem:klamra łukowa, kropka zamiast numeru	!	!	!
8E\L	.	16gg#X\LL	.	24gg#X\LL	.	16gg#X\LL	Do-
.	.	.	.	24ff#\	.	.	.
.	.	16ff#\JJ	.	.	.	16ff#\JJ	-mi-
.	.	.	.	24ee\JJ	.	.	.
8G#X\	.	4ee\	.	4ee\	.	4ee\	-num
8E\J	.	.	.	.	.	.	.
=108	=108	=108	=108	=108	=108	=108	=108
!	!	!LO:TX:t=P:problem:mixed beam	!	!LO:TX:t=P:problem:mixed beam	!	!	!
8A\L	.	8aa\L	.	8aa\L	.	(8aa\L	flo-
!LO:TX:t=P:problem:mixed beam	!	!	!	!	!	!	!
8AA/	.	8a/	.	8a/	.	8a\	.
8AA/J	.	8a/J	.	8a/J	.	8a\J)	.
=109	=109	=109	=109	=109	=109	=109	=109
8AA/L	.	4a/	.	4a/	.	4a\	-re-
8C#X/	.	.	.	.	.	.	.
8AA/J	.	8aa\	.	8aa\	.	8aa\	-bit
=110	=110	=110	=110	=110	=110	=110	=110
!	!	!	!LO:DY:t=poco for	!	!LO:DY:t= poco f	!	!
16G#X\LL	.	16gg#X\LL	f	16gg#X\LL	f	16gg#X\LL	flo-
16A\	.	16aa\	.	16aa\	.	16aa\	.
16G#\	.	16gg#\	.	16gg#\	.	16gg#\	.
16F#\	.	16ff#\	.	16ff#\	.	16ff#\	.
16E\	.	16ee\	.	16ee\	.	16ee\	.
16D\JJ	.	16dd\JJ	.	16dd\JJ	.	16dd\JJ	.
=111	=111	=111	=111	=111	=111	=111	=111
!	!	!	!	!LO:TX:a:t=P:problem:przed tym taktem dwa skreślone takty	!	!	!
4C#/	.	8cc#\L	.	8cc#\L	.	8cc#\L	.
.	.	8aa\	.	8aa\	.	8aa\	.
8D/	.	8dd\J	.	8dd\J	.	8dd\J	.
=112	=112	=112	=112	=112	=112	=112	=112
*	*	*Xtuplet	*	*Xtuplet	*	*	*
!	!	!LO:TUP:a:problem:klamra łukowa	!	!LO:TUP:a:problem:klamra łukowa	!	!LO:TUP:a:problem:klamra łukowa	!
8E\L	.	24cc#\LL	.	24cc#\LL	.	24cc#\LL	.
.	.	24b\	.	24b\	.	24b\	.
.	.	24a\JJ	.	24a\JJ	.	24a\JJ	.
!LO:TX:t=P:problem:mixed beam	!	!	!	!	!	!	!
.	.	.	.	.	.	8qqa/	.
8EE/	.	4bT\	.	4bT\	.	4bT\	.
8EE/J	.	.	.	.	.	.	.
!	!	!	!	!	!	!LO:LB:g=original	!
=113	=113	=113	=113	=113	=113	=113	=113
!	!	!LO:TX:t=P:problem:mixed beam	!	!LO:TX:t=P:problem:mixed beam	!	!	!
4C#/	.	8aa\L	.	8aa\L	.	8aa\L	.
.	.	8a/	.	8a/	.	8a\	.
8D/	.	8dd\J	.	8dd/J	.	8dd\J	.
=114	=114	=114	=114	=114	=114	=114	=114
8E\L	.	24cc#\LL	.	24cc#\LL	.	24cc#\LL	.
.	.	24b\	.	24b\	.	24b\	.
.	.	24a\JJ	.	24a\JJ	.	24a\JJ	.
!LO:TX:t=P:problem:mixed beam	!	!	!	!	!	!	!
.	.	.	.	.	.	8qqa/	.
8EE/	.	4bT\	.	4bT\	.	4bT\	-re-
8EE/J	.	.	.	.	.	.	.
=115	=115	=115	=115	=115	=115	=115	=115
!	!LO:DY:t=f&colon;	!	!LO:DY:t=for	!	!LO:DY:t=for	!	!
4AA/	f	4.a/	f	4.a/	f	4a\	-bit
8r	.	.	.	.	.	8r	.
!	!	!	!	!LO:LB:g=original	!	!	!
=116	=116	=116	=116	=116	=116	=116	=116
!	!	!	!	!	!	!LO:TX:a:t=16	!
!	!	!	!	!	!	!LO:N:vis=00	!
8A\	.	8cc#\L	.	8cc#\L	.	1.r	.
4B\	.	8.ddT\	.	8.dd\	.	.	.
.	.	32cc#\LL	.	32cc#\LL	.	.	.
.	.	32dd\JJJ	.	32dd\JJJ	.	.	.
=117	=117	=117	=117	=117	=117	=117	=117
8c#\L	.	8ee\L	.	8ee\L	.	.	.
8d\	.	8ff#\	.	8ff#\	.	.	.
8B\J	.	8gg#X\J	.	8gg#X\J	.	.	.
=118	=118	=118	=118	=118	=118	=118	=118
8A\L	.	8aa\L	.	8aa\L	.	.	.
!	!	!LO:TX:t=P:problem:mixed beam	!	!LO:TX:t=P:problem:mixed beam	!	!	!
8c#\	.	8a/J	.	8a/J	.	.	.
8B\J	.	8r	.	8r	.	.	.
=119	=119	=119	=119	=119	=119	=119	=119
8A\L	.	16cc#\LL	.	16cc#\LL	.	.	.
.	.	16a\	.	16a\	.	.	.
8A\	.	16ee\	.	16ee\	.	.	.
.	.	16cc#\	.	16cc#\	.	.	.
8A\J	.	16b\	.	16b\	.	.	.
.	.	16a\JJ	.	16a\JJ	.	.	.
=120	=120	=120	=120	=120	=120	=120	=120
!	!	!	!	!	!	!LO:N:vis=00	!
8E\L	.	16b/LL	.	16b/LL	.	1.r	.
.	.	16e/	.	16e/	.	.	.
8E\	.	16b/	.	16b/	.	.	.
.	.	16dd/	.	16dd/	.	.	.
8E\J	.	16cc#/	.	16cc#/	.	.	.
.	.	16b/JJ	.	16b/JJ	.	.	.
!LO:LB:g=original	!	!LO:LB:g=original	!	!	!	!	!
=121	=121	=121	=121	=121	=121	=121	=121
!	!	!	!LO:DY:rj	!	!LO:DY:t=p&colon;	!	!
8A\L	.	16cc#\LL	p	16cc#\LL	p	.	.
.	.	16a\	.	16a\	.	.	.
8A\	.	16ee\	.	16ee\	.	.	.
.	.	16cc#\	.	16cc#\	.	.	.
8A\J	.	16b\	.	16b\	.	.	.
.	.	16a\JJ	.	16a\JJ	.	.	.
=122	=122	=122	=122	=122	=122	=122	=122
8E\L	.	16b/LL	.	16b/LL	.	.	.
.	.	16e/JJ	.	16e/	.	.	.
8E\	.	16b\LL	.	16b/	.	.	.
.	.	16dd\JJ	.	16dd/JJ	.	.	.
8E\J	.	16cc#\LL	.	16cc#\LL	.	.	.
.	.	16b\JJ	.	16b\JJ	.	.	.
=123	=123	=123	=123	=123	=123	=123	=123
8AA'/L	.	8cc#\L	f	8cc#\L	f	.	.
(8AA/	.	16cc#\L	.	16cc#\L	.	.	.
.	.	16a\	.	16a\	.	.	.
8BB/J)	.	16dd\	.	16dd\	.	.	.
.	.	16b\JJ	.	16b\JJ	.	.	.
=124	=124	=124	=124	=124	=124	=124	=124
!	!	!	!	!	!	!LO:N:vis=00	!
8C#'/L	.	8ee\L	.	8ee\L	.	1.r	.
(8C#/	.	16ee\L	.	16ee\L	.	.	.
.	.	16cc#\	.	16cc#\	.	.	.
8D/J)	.	16ff#\	.	16ff#\	.	.	.
.	.	16dd\JJ	.	16dd\JJ	.	.	.
=125	=125	=125	=125	=125	=125	=125	=125
8C#'/L	.	8aa\L	.	8aa\L	.	.	.
(8C#/	.	16aa\L	.	16aa\L	.	.	.
.	.	16ee\	.	16ee\	.	.	.
8D/J)	.	16ff#\	.	16ff#\	.	.	.
.	.	16dd\JJ	.	16dd\JJ	.	.	.
=126	=126	=126	=126	=126	=126	=126	=126
8C#/L	.	16ee\LL	.	16ee\LL	.	.	.
.	.	16cc#\	.	16cc#\JJ	.	.	.
8BB/	.	16dd\	.	16dd\LL	.	.	.
.	.	16b\	.	16b\JJ	.	.	.
8AA/J	.	16cc#\	.	16cc#\LL	.	.	.
.	.	16a\JJ	.	16a\JJ	.	.	.
=127	=127	=127	=127	=127	=127	=127	=127
8E\L	.	16e/LL	.	16e/LL	.	.	.
.	.	16a/JJ	.	16a/JJ	.	.	.
!LO:TX:t=P:problem:mixed beam	!	!	!	!	!	!	!
.	.	.	.	8qqa/	.	.	.
8EE/	.	4bT/	.	4b/	.	.	.
8EE/J	.	.	.	.	.	.	.
=128	=128	=128	=128	=128	=128	=128	=128
!	!	!	!	!	!LO:DY:rj	!LO:N:vis=00	!
8C#'/L	.	8aa\L	p	8aa\L	p	1.r;	.
(8C#/	.	16aa\L	.	16aa\L	.	.	.
.	.	16ee\	.	16ee\	.	.	.
8D/J)	.	16ff#\	.	16ff#\	.	.	.
.	.	16dd\JJ	.	16dd\JJ	.	.	.
!	!	!	!	!LO:LB:g=original	!	!	!
=129	=129	=129	=129	=129	=129	=129	=129
8C#/L	.	16ee\LL	.	16ee\LL	.	.	.
.	.	16cc#\	.	16cc#\	.	.	.
8BB/	.	16dd\	.	16dd\	.	.	.
.	.	16b\	.	16b\	.	.	.
8AA/J	.	16cc#\	.	16cc#\	.	.	.
.	.	16a\JJ	.	16a\JJ	.	.	.
=130	=130	=130	=130	=130	=130	=130	=130
!LO:TX:a:t=P:problem:mixed beam	!	!	!	!	!	!	!
8E\L	.	16e/LL	.	16e/LL	.	.	.
.	.	16a/JJ	.	16a/JJ	.	.	.
8EE/	.	4bT\	.	4bT\	.	.	.
8EE/J	.	.	.	.	.	.	.
=131	=131	=131	=131	=131	=131	=131	=131
!	!	!	!	!	!LO:DY:t=fo	!	!
8AA;;/	.	8a/L	f	8a/L	f	.	.
8A\L	.	8A/J	.	8A/J	.	.	.
!	!	!LO:TX:a:t=P:problem:podwójna kreska	!	!	!	!	!
8G#X\J	.	8r;	.	8r;;	.	.	.
=132	=132	=132	=132	=132	=132	=132	=132
!	!	!	!LO:DY:t=pia	!	!	!	!
4.F#\	.	4.a/	p	4.cc#\	.	8cc#\	plan-
.	.	.	.	.	.	8cc#\	-ta-
.	.	.	.	.	.	8cc#\	-tuſ
=133	=133	=133	=133	=133	=133	=133	=133
8F#\L	.	8b/L	.	8ff#\	.	8ff#\	in
8F#\	.	8g#X/	.	4dd\	.	4dd\	.
8F#\J	.	8a/J	.	.	.	.	.
=134	=134	=134	=134	=134	=134	=134	=134
!	!	!	!	!	!	!LO:TX:a:t=|:problem	!
8E\L	.	8g#X/L	.	8dd\L	.	8dd\L	Do-
!	!	!	!	!	!	!LO:TX:a:t=|:problem	!
8E\	.	8g#/	.	8cc#\	.	8cc#\J	-mo
.	.	.	.	16qqee/L	.	.	.
!	!	!	!	!LO:SIC:v:s=16gg#	!	!	!
.	.	.	.	16qqff#/J	.	.	.
8E\J	.	8g#/J	.	8gg\J	.	8r	.
!	!	!LO:LB:g=original	!	!	!	!	!
=135	=135	=135	=135	=135	=135	=135	=135
4.E\	.	4.g#X/	.	4cc#\	.	8cc#\	Do-
.	.	.	.	.	.	8cc#\	-mi-
.	.	.	.	8r	.	8cc#\	-ni
=136	=136	=136	=136	=136	=136	=136	=136
8D\L	.	8d/L	.	16ff#\LL	.	(16ff#\LL	In
.	.	.	.	16ee\	.	16ee\)	.
8D\	.	8f#/	.	16dd\	.	(16dd\	a-
.	.	.	.	16cc#\	.	16cc#\)	.
!	!	!	!	!	!	!LO:TX:a:t=|:problem	!
8D\J	.	8f#/J	.	16b\	.	16b\	-tri-
!	!	!	!	!	!	!LO:TX:a:t=|:problem	!
.	.	.	.	16a\JJ	.	16a\JJ	-js
=137	=137	=137	=137	=137	=137	=137	=137
!	!	!	!	!	!	!LO:TX:a:t=|:problem	!
8D\L	.	8B/L	.	8g#X/L	.	8g#X\L	do-
!	!	!	!	!	!	!LO:TX:a:t=|:problem	!
8C#\J	.	8e/J	.	8a/J	.	8a\J	-muſ
8r	.	8r	.	8r	.	8r	.
=138	=138	=138	=138	=138	=138	=138	=138
4BB/	.	4g#X/	.	16dd\LL	.	(16dd\LL	De-
.	.	.	.	16cc#\	.	16cc#\	.
.	.	.	.	16b\	.	16b\	.
.	.	.	.	16a\JJ	.	16a\	.
8r	.	8r	.	16g#X/LL	.	16g#X\	.
.	.	.	.	16f#/JJ	.	16f#\JJ)	.
=139	=139	=139	=139	=139	=139	=139	=139
8E\L	.	8g#X/L	.	8e/	.	8e/	.
8G#X\	.	8b/	.	4dd\	.	4dd\	-i
8E\J	.	8g#/J	.	.	.	.	.
!LO:LB:g=original	!	!	!	!	!	!	!
=140	=140	=140	=140	=140	=140	=140	=140
!	!	!	!	!	!	!LO:TX:b:t=P:problem:nieczytelny tekst 140-142	!
8A\L	.	8e/L	.	8dd\L	.	8ddT\L	.
!LO:TX:t=P:problem:mixed beam	!	!	!	!	!	!	!
8AA/J	.	8e/J	.	8cc#\J	.	8cc#\J	.
8r	.	8r	.	8r	.	8r	.
!	!	!	!	!	!	!LO:LB:g=original	!
=141	=141	=141	=141	=141	=141	=141	=141
4d\	.	8.dd\L	.	8.dd\L	.	8.dd\L	do-
.	.	16ee\K	.	16ee\K	.	16ee\Jk	.
8r	.	8ff#\J	.	8ff#\J	.	8ff#\	.
=142	=142	=142	=142	=142	=142	=142	=142
8A\L	.	8cc#\L	.	8ee\	.	8ee\	.
8A\	.	8cc#\	.	4a/	.	4a\	-muſ
8A\J	.	8cc#\J	.	.	.	.	.
=143	=143	=143	=143	=143	=143	=143	=143
8d\L	.	8dd\L	.	8ff#\L	.	8ff#\L	De-
8A\J	.	8cc#\J	.	8ee\J	.	8ee\J	-i
8r	.	8r	.	8r	.	8r	.
=144	=144	=144	=144	=144	=144	=144	=144
8d\L	.	8dd\L	.	8dd\L	.	8dd\L	do-
8B\	.	8b\	.	8b\	.	8b\J	.
8F#\J	.	8f#\J	.	8f#\J	.	8f#/	-muſ
!	!	!	!	!LO:LB:g=original	!	!	!
=145	=145	=145	=145	=145	=145	=145	=145
8G\	.	8g/	.	8g/	.	(8g\	De-
4B\	.	4a/	.	4a/	.	4a\)	.
=146	=146	=146	=146	=146	=146	=146	=146
4.B;\	.	4.b;\	.	4.b;</	.	4b;\	-i
.	.	.	.	.	.	8r	.
=147	=147	=147	=147	=147	=147	=147	=147
8d\L	.	8dd\L	.	8dd\L	.	8dd\L	no-
8B\	.	8b\	.	8b\	.	8b\	.
8F#\J	.	8f#\J	.	8f#\J	.	8f#\J	.
=148	=148	=148	=148	=148	=148	=148	=148
8G\	.	8g/	.	8g/	.	8g\	.
4A;\	.	4a/	.	4a/	.	4a\	.
=149	=149	=149	=149	=149	=149	=149	=149
4D/	.	4d/	.	4d/	.	4d/	-stri
!LO:TX:b:B:t=Da Capo	!	!LO:TX:b:i:t=Da Capo	!	!LO:TX:b:i:t=Da Capo	!	!LO:TX:b:i:t=Da Capo	!
8r	.	8r	.	8r	.	8r	.
==	==	==	==	==	==	==	==
*-	*-	*-	*-	*-	*-	*-	*-
!!!system-decoration: s1[g1]s4
!!!RDF**kern: > = above
!!!RDF**kern: < = below
!!!ENC: Anastazja Marusiak
!!!END: 2020-05-11
!!!ENC: Marta Lawrence
!!!END: 2020-11-25
